<?xml version="1.0" encoding="UTF-8"?>
<map version="1.10" tiledversion="1.10.1" orientation="orthogonal" renderorder="right-down" width="20" height="15" tilewidth="64" tileheight="64" infinite="0" nextlayerid="5" nextobjectid="1">
 <editorsettings>
  <export target="../json/map-zelda.json" format="json"/>
 </editorsettings>
 <tileset firstgid="1" name="Dungeon Color2@64x64" tilewidth="64" tileheight="64" tilecount="256" columns="16">
  <image source="../images/Dungeon Color2@64x64.png" width="1024" height="1024"/>
  <tile id="16">
   <properties>
    <property name="solid" type="bool" value="true"/>
   </properties>
  </tile>
  <tile id="17">
   <properties>
    <property name="solid" type="bool" value="true"/>
   </properties>
  </tile>
  <tile id="18">
   <properties>
    <property name="solid" type="bool" value="true"/>
   </properties>
  </tile>
  <tile id="19">
   <properties>
    <property name="solid" type="bool" value="true"/>
   </properties>
  </tile>
  <tile id="20">
   <properties>
    <property name="solid" type="bool" value="true"/>
   </properties>
  </tile>
  <tile id="21">
   <properties>
    <property name="solid" type="bool" value="true"/>
   </properties>
  </tile>
  <tile id="22">
   <properties>
    <property name="solid" type="bool" value="true"/>
   </properties>
  </tile>
  <tile id="23">
   <properties>
    <property name="solid" type="bool" value="true"/>
   </properties>
  </tile>
  <tile id="24">
   <properties>
    <property name="solid" type="bool" value="true"/>
   </properties>
  </tile>
  <tile id="25">
   <properties>
    <property name="solid" type="bool" value="true"/>
   </properties>
  </tile>
  <tile id="26">
   <properties>
    <property name="solid" type="bool" value="true"/>
   </properties>
  </tile>
  <tile id="30">
   <properties>
    <property name="solid" type="bool" value="true"/>
   </properties>
   <objectgroup draworder="index" id="2">
    <object id="1" x="11.3131" y="1.64114" width="40.9995" height="50.3562"/>
   </objectgroup>
  </tile>
  <tile id="32">
   <properties>
    <property name="solid" type="bool" value="true"/>
   </properties>
  </tile>
  <tile id="33">
   <properties>
    <property name="solid" type="bool" value="true"/>
   </properties>
  </tile>
  <tile id="34">
   <properties>
    <property name="solid" type="bool" value="true"/>
   </properties>
  </tile>
  <tile id="35">
   <properties>
    <property name="solid" type="bool" value="true"/>
   </properties>
  </tile>
  <tile id="36">
   <properties>
    <property name="solid" type="bool" value="true"/>
   </properties>
  </tile>
  <tile id="37">
   <properties>
    <property name="solid" type="bool" value="true"/>
   </properties>
  </tile>
  <tile id="38">
   <properties>
    <property name="solid" type="bool" value="true"/>
   </properties>
  </tile>
  <tile id="39">
   <properties>
    <property name="solid" type="bool" value="true"/>
   </properties>
  </tile>
  <tile id="40">
   <properties>
    <property name="solid" type="bool" value="true"/>
   </properties>
  </tile>
  <tile id="41">
   <properties>
    <property name="solid" type="bool" value="true"/>
   </properties>
  </tile>
  <tile id="42">
   <properties>
    <property name="solid" type="bool" value="true"/>
   </properties>
  </tile>
  <tile id="48">
   <properties>
    <property name="solid" type="bool" value="true"/>
   </properties>
  </tile>
  <tile id="49">
   <properties>
    <property name="solid" type="bool" value="true"/>
   </properties>
  </tile>
  <tile id="53">
   <properties>
    <property name="solid" type="bool" value="true"/>
   </properties>
  </tile>
  <tile id="54">
   <properties>
    <property name="solid" type="bool" value="true"/>
   </properties>
  </tile>
  <tile id="55">
   <properties>
    <property name="solid" type="bool" value="true"/>
   </properties>
  </tile>
  <tile id="56">
   <properties>
    <property name="solid" type="bool" value="true"/>
   </properties>
  </tile>
  <tile id="57">
   <properties>
    <property name="solid" type="bool" value="true"/>
   </properties>
  </tile>
  <tile id="58">
   <properties>
    <property name="solid" type="bool" value="true"/>
   </properties>
  </tile>
  <tile id="64">
   <properties>
    <property name="solid" type="bool" value="true"/>
   </properties>
  </tile>
  <tile id="65">
   <properties>
    <property name="solid" type="bool" value="true"/>
   </properties>
  </tile>
  <tile id="69">
   <properties>
    <property name="solid" type="bool" value="true"/>
   </properties>
  </tile>
  <tile id="70">
   <properties>
    <property name="solid" type="bool" value="true"/>
   </properties>
  </tile>
  <tile id="71">
   <properties>
    <property name="solid" type="bool" value="true"/>
   </properties>
  </tile>
  <tile id="72">
   <properties>
    <property name="solid" type="bool" value="true"/>
   </properties>
  </tile>
  <tile id="73">
   <properties>
    <property name="solid" type="bool" value="true"/>
   </properties>
  </tile>
  <tile id="74">
   <properties>
    <property name="solid" type="bool" value="true"/>
   </properties>
  </tile>
  <tile id="78">
   <properties>
    <property name="solid" type="bool" value="true"/>
   </properties>
   <objectgroup draworder="index" id="2">
    <object id="1" x="7.48536" y="1.19087" width="46.7837" height="52.5678"/>
   </objectgroup>
  </tile>
  <tile id="80">
   <properties>
    <property name="solid" type="bool" value="true"/>
   </properties>
  </tile>
  <tile id="81">
   <properties>
    <property name="solid" type="bool" value="true"/>
   </properties>
  </tile>
  <tile id="85">
   <properties>
    <property name="solid" type="bool" value="true"/>
   </properties>
  </tile>
  <tile id="86">
   <properties>
    <property name="solid" type="bool" value="true"/>
   </properties>
  </tile>
  <tile id="87">
   <properties>
    <property name="solid" type="bool" value="true"/>
   </properties>
  </tile>
  <tile id="88">
   <properties>
    <property name="solid" type="bool" value="true"/>
   </properties>
  </tile>
  <tile id="89">
   <properties>
    <property name="solid" type="bool" value="true"/>
   </properties>
  </tile>
  <tile id="90">
   <properties>
    <property name="solid" type="bool" value="true"/>
   </properties>
  </tile>
  <tile id="91">
   <properties>
    <property name="solid" type="bool" value="true"/>
   </properties>
  </tile>
  <tile id="96">
   <properties>
    <property name="solid" type="bool" value="true"/>
   </properties>
  </tile>
  <tile id="97">
   <properties>
    <property name="solid" type="bool" value="true"/>
   </properties>
  </tile>
  <tile id="98">
   <properties>
    <property name="solid" type="bool" value="true"/>
   </properties>
  </tile>
  <tile id="99">
   <properties>
    <property name="solid" type="bool" value="true"/>
   </properties>
  </tile>
  <tile id="100">
   <properties>
    <property name="solid" type="bool" value="true"/>
   </properties>
  </tile>
  <tile id="101">
   <properties>
    <property name="solid" type="bool" value="true"/>
   </properties>
  </tile>
  <tile id="102">
   <properties>
    <property name="solid" type="bool" value="true"/>
   </properties>
  </tile>
  <tile id="103">
   <properties>
    <property name="solid" type="bool" value="true"/>
   </properties>
  </tile>
  <tile id="104">
   <properties>
    <property name="solid" type="bool" value="true"/>
   </properties>
  </tile>
  <tile id="105">
   <properties>
    <property name="solid" type="bool" value="true"/>
   </properties>
  </tile>
  <tile id="106">
   <properties>
    <property name="solid" type="bool" value="true"/>
   </properties>
  </tile>
  <tile id="107">
   <properties>
    <property name="solid" type="bool" value="true"/>
   </properties>
  </tile>
  <tile id="112">
   <properties>
    <property name="solid" type="bool" value="true"/>
   </properties>
  </tile>
  <tile id="113">
   <properties>
    <property name="solid" type="bool" value="true"/>
   </properties>
  </tile>
  <tile id="114">
   <properties>
    <property name="solid" type="bool" value="true"/>
   </properties>
  </tile>
  <tile id="115">
   <properties>
    <property name="solid" type="bool" value="true"/>
   </properties>
  </tile>
  <tile id="116">
   <properties>
    <property name="solid" type="bool" value="true"/>
   </properties>
  </tile>
  <tile id="117">
   <properties>
    <property name="solid" type="bool" value="true"/>
   </properties>
  </tile>
  <tile id="118">
   <properties>
    <property name="solid" type="bool" value="true"/>
   </properties>
  </tile>
  <tile id="119">
   <properties>
    <property name="solid" type="bool" value="true"/>
   </properties>
  </tile>
  <tile id="120">
   <properties>
    <property name="solid" type="bool" value="true"/>
   </properties>
  </tile>
  <tile id="121">
   <properties>
    <property name="solid" type="bool" value="true"/>
   </properties>
  </tile>
  <tile id="122">
   <properties>
    <property name="solid" type="bool" value="true"/>
   </properties>
  </tile>
  <tile id="128">
   <properties>
    <property name="solid" type="bool" value="true"/>
   </properties>
  </tile>
  <tile id="129">
   <properties>
    <property name="solid" type="bool" value="true"/>
   </properties>
  </tile>
  <tile id="130">
   <properties>
    <property name="solid" type="bool" value="true"/>
   </properties>
  </tile>
  <tile id="131">
   <properties>
    <property name="solid" type="bool" value="true"/>
   </properties>
  </tile>
  <tile id="132">
   <properties>
    <property name="solid" type="bool" value="true"/>
   </properties>
  </tile>
  <tile id="133">
   <properties>
    <property name="solid" type="bool" value="true"/>
   </properties>
  </tile>
  <tile id="134">
   <properties>
    <property name="solid" type="bool" value="true"/>
   </properties>
  </tile>
  <tile id="135">
   <properties>
    <property name="solid" type="bool" value="true"/>
   </properties>
  </tile>
  <tile id="136">
   <properties>
    <property name="solid" type="bool" value="true"/>
   </properties>
  </tile>
  <tile id="137">
   <properties>
    <property name="solid" type="bool" value="true"/>
   </properties>
  </tile>
  <tile id="138">
   <properties>
    <property name="solid" type="bool" value="true"/>
   </properties>
  </tile>
  <tile id="144">
   <properties>
    <property name="solid" type="bool" value="true"/>
   </properties>
  </tile>
  <tile id="145">
   <properties>
    <property name="door" type="bool" value="true"/>
   </properties>
  </tile>
  <tile id="146">
   <properties>
    <property name="solid" type="bool" value="true"/>
   </properties>
  </tile>
  <tile id="147">
   <properties>
    <property name="solid" type="bool" value="true"/>
   </properties>
  </tile>
  <tile id="148">
   <properties>
    <property name="door" type="bool" value="true"/>
   </properties>
  </tile>
  <tile id="149">
   <properties>
    <property name="door" type="bool" value="true"/>
   </properties>
  </tile>
  <tile id="150">
   <properties>
    <property name="solid" type="bool" value="true"/>
   </properties>
  </tile>
  <tile id="151">
   <properties>
    <property name="solid" type="bool" value="true"/>
   </properties>
  </tile>
  <tile id="152">
   <properties>
    <property name="solid" type="bool" value="true"/>
   </properties>
  </tile>
  <tile id="153">
   <properties>
    <property name="solid" type="bool" value="true"/>
   </properties>
  </tile>
  <tile id="154">
   <properties>
    <property name="solid" type="bool" value="true"/>
   </properties>
  </tile>
  <tile id="156">
   <properties>
    <property name="solid" type="bool" value="true"/>
   </properties>
  </tile>
  <tile id="160">
   <properties>
    <property name="solid" type="bool" value="true"/>
   </properties>
  </tile>
  <tile id="161">
   <properties>
    <property name="door" type="bool" value="true"/>
   </properties>
  </tile>
  <tile id="162">
   <properties>
    <property name="solid" type="bool" value="true"/>
   </properties>
  </tile>
  <tile id="163">
   <properties>
    <property name="solid" type="bool" value="true"/>
   </properties>
  </tile>
  <tile id="164">
   <properties>
    <property name="solid" type="bool" value="true"/>
   </properties>
  </tile>
  <tile id="165">
   <properties>
    <property name="solid" type="bool" value="true"/>
   </properties>
  </tile>
  <tile id="166">
   <properties>
    <property name="solid" type="bool" value="true"/>
   </properties>
  </tile>
  <tile id="167">
   <properties>
    <property name="solid" type="bool" value="true"/>
   </properties>
  </tile>
  <tile id="168">
   <properties>
    <property name="door" type="bool" value="true"/>
   </properties>
  </tile>
  <tile id="169">
   <properties>
    <property name="solid" type="bool" value="true"/>
   </properties>
  </tile>
  <tile id="170">
   <properties>
    <property name="solid" type="bool" value="true"/>
   </properties>
  </tile>
  <tile id="172">
   <properties>
    <property name="solid" type="bool" value="true"/>
   </properties>
  </tile>
  <tile id="176">
   <properties>
    <property name="solid" type="bool" value="true"/>
   </properties>
  </tile>
  <tile id="177">
   <properties>
    <property name="solid" type="bool" value="true"/>
   </properties>
  </tile>
  <tile id="178">
   <properties>
    <property name="solid" type="bool" value="true"/>
   </properties>
  </tile>
  <tile id="181">
   <properties>
    <property name="solid" type="bool" value="true"/>
   </properties>
  </tile>
  <tile id="186">
   <properties>
    <property name="solid" type="bool" value="true"/>
   </properties>
  </tile>
  <tile id="188">
   <properties>
    <property name="solid" type="bool" value="true"/>
   </properties>
  </tile>
  <tile id="193">
   <properties>
    <property name="door" type="bool" value="true"/>
   </properties>
  </tile>
  <tile id="195">
   <properties>
    <property name="door" type="bool" value="true"/>
   </properties>
  </tile>
  <tile id="196">
   <properties>
    <property name="door" type="bool" value="true"/>
   </properties>
  </tile>
  <tile id="197">
   <properties>
    <property name="solid" type="bool" value="true"/>
   </properties>
  </tile>
  <tile id="198">
   <properties>
    <property name="solid" type="bool" value="true"/>
   </properties>
  </tile>
  <tile id="202">
   <properties>
    <property name="solid" type="bool" value="true"/>
   </properties>
  </tile>
  <tile id="204">
   <properties>
    <property name="solid" type="bool" value="true"/>
   </properties>
  </tile>
  <tile id="205">
   <properties>
    <property name="openRef" type="int" value="249"/>
    <property name="solid" type="bool" value="true"/>
    <property name="switch" type="bool" value="true"/>
   </properties>
   <objectgroup draworder="index" id="4">
    <object id="6" x="16.5226" y="26.9415" width="30.9623" height="26.8793"/>
   </objectgroup>
  </tile>
  <tile id="209">
   <properties>
    <property name="door" type="bool" value="true"/>
   </properties>
  </tile>
  <tile id="214">
   <properties>
    <property name="solid" type="bool" value="true"/>
   </properties>
  </tile>
  <tile id="215">
   <properties>
    <property name="solid" type="bool" value="true"/>
   </properties>
  </tile>
  <tile id="216">
   <properties>
    <property name="door" type="bool" value="true"/>
   </properties>
  </tile>
  <tile id="217">
   <properties>
    <property name="solid" type="bool" value="true"/>
   </properties>
  </tile>
  <tile id="218">
   <properties>
    <property name="solid" type="bool" value="true"/>
   </properties>
  </tile>
  <tile id="219">
   <properties>
    <property name="solid" type="bool" value="true"/>
   </properties>
  </tile>
  <tile id="220">
   <properties>
    <property name="solid" type="bool" value="true"/>
   </properties>
  </tile>
  <tile id="221">
   <properties>
    <property name="solid" type="bool" value="true"/>
   </properties>
  </tile>
  <tile id="224">
   <properties>
    <property name="solid" type="bool" value="true"/>
   </properties>
  </tile>
  <tile id="225">
   <properties>
    <property name="solid" type="bool" value="true"/>
   </properties>
  </tile>
  <tile id="226">
   <properties>
    <property name="solid" type="bool" value="true"/>
   </properties>
  </tile>
  <tile id="227">
   <properties>
    <property name="draggable" type="bool" value="true"/>
    <property name="solid" type="bool" value="true"/>
   </properties>
  </tile>
  <tile id="228">
   <properties>
    <property name="solid" type="bool" value="true"/>
   </properties>
  </tile>
  <tile id="229">
   <properties>
    <property name="solid" type="bool" value="true"/>
   </properties>
  </tile>
  <tile id="231">
   <properties>
    <property name="solid" type="bool" value="true"/>
   </properties>
  </tile>
  <tile id="232">
   <properties>
    <property name="solid" type="bool" value="true"/>
   </properties>
  </tile>
  <tile id="233">
   <properties>
    <property name="solid" type="bool" value="true"/>
   </properties>
  </tile>
  <tile id="240">
   <properties>
    <property name="solid" type="bool" value="true"/>
   </properties>
   <objectgroup draworder="index" id="2">
    <object id="1" x="1.34235" y="7.54759" width="60.7337" height="46.4434"/>
   </objectgroup>
  </tile>
  <tile id="241">
   <properties>
    <property name="solid" type="bool" value="true"/>
   </properties>
  </tile>
  <tile id="242">
   <properties>
    <property name="solid" type="bool" value="true"/>
   </properties>
  </tile>
  <tile id="244">
   <properties>
    <property name="solid" type="bool" value="true"/>
   </properties>
  </tile>
  <tile id="245">
   <properties>
    <property name="solid" type="bool" value="true"/>
   </properties>
  </tile>
  <tile id="246">
   <properties>
    <property name="collectable" type="bool" value="true"/>
    <property name="solid" type="bool" value="true"/>
   </properties>
   <objectgroup draworder="index" id="2">
    <object id="1" x="1.446" y="2.12652" width="60.7337" height="51.3769"/>
   </objectgroup>
  </tile>
  <tile id="247">
   <properties>
    <property name="switch" type="bool" value="true"/>
   </properties>
  </tile>
  <tile id="248">
   <properties>
    <property name="switch" type="bool" value="true"/>
   </properties>
  </tile>
  <tile id="249">
   <properties>
    <property name="openRef" type="int" value="205"/>
    <property name="solid" type="bool" value="true"/>
    <property name="switch" type="bool" value="true"/>
   </properties>
   <objectgroup draworder="index" id="2">
    <object id="1" x="16.8421" y="27.2196" width="30.9623" height="26.8793"/>
   </objectgroup>
  </tile>
  <tile id="250">
   <properties>
    <property name="solid" type="bool" value="true"/>
   </properties>
  </tile>
  <tile id="251">
   <properties>
    <property name="solid" type="bool" value="true"/>
   </properties>
  </tile>
  <tile id="252">
   <properties>
    <property name="solid" type="bool" value="true"/>
   </properties>
  </tile>
  <tile id="253">
   <properties>
    <property name="solid" type="bool" value="true"/>
   </properties>
  </tile>
 </tileset>
 <layer id="1" name="Grounded" width="20" height="15">
  <data encoding="csv">
0,0,0,0,0,0,0,0,0,0,0,0,0,0,0,0,0,0,0,0,
0,0,0,0,0,0,0,0,0,0,0,0,0,0,0,0,0,0,0,0,
0,0,110,111,111,111,111,111,111,111,111,111,111,111,111,111,111,112,0,0,
0,0,126,127,127,127,127,127,127,127,127,127,127,127,127,127,127,128,0,0,
0,0,126,127,127,127,127,127,127,127,127,127,127,127,127,127,127,128,0,0,
0,0,126,127,127,127,127,127,127,127,127,127,127,127,127,127,127,128,0,0,
0,0,126,127,127,127,127,127,127,62,63,64,127,127,127,127,127,128,0,0,
0,0,126,127,127,127,127,127,127,78,0,80,127,127,127,127,127,128,0,0,
0,0,126,127,127,127,127,127,127,94,95,96,127,127,127,127,127,128,0,0,
0,0,126,127,127,127,127,127,127,127,127,127,127,127,127,127,127,128,0,0,
0,0,126,127,127,127,127,127,127,127,127,127,127,127,127,127,127,128,0,0,
0,0,126,127,127,127,127,127,127,127,127,127,127,127,127,127,127,128,0,0,
0,0,142,143,143,143,143,143,143,143,143,143,143,143,143,143,143,144,0,0,
0,0,0,0,0,0,0,0,0,0,0,0,0,0,0,0,0,0,0,0,
0,0,0,0,0,0,0,0,0,0,0,0,0,0,0,0,0,0,0,0
</data>
 </layer>
 <layer id="3" name="Colliders" width="20" height="15">
  <data encoding="csv">
17,18,19,19,19,19,19,19,19,129,130,131,19,19,19,19,19,19,22,23,
33,34,35,35,35,35,35,35,35,145,0,147,35,35,35,35,35,35,38,39,
81,82,0,0,0,0,0,0,0,0,0,0,0,0,0,0,0,0,54,55,
81,82,0,0,0,0,0,0,0,0,0,0,0,0,0,0,0,0,54,55,
81,82,0,0,0,0,0,0,0,0,0,0,0,0,0,0,0,0,54,55,
81,82,0,0,0,0,0,0,0,0,0,0,0,0,0,0,0,0,54,55,
81,82,0,0,0,0,0,0,0,0,0,0,0,0,0,0,0,0,54,55,
81,82,0,0,0,0,0,0,0,0,79,0,0,0,0,0,0,0,54,55,
81,82,0,0,0,0,0,0,0,0,0,0,0,0,0,0,0,0,54,55,
81,82,0,0,0,0,0,0,0,0,0,0,0,0,0,0,0,0,54,55,
81,82,0,0,0,0,0,0,0,0,0,0,0,0,0,0,0,0,54,55,
81,82,0,0,0,0,0,0,0,0,0,0,0,0,0,0,0,0,54,55,
81,82,0,0,0,0,0,0,0,0,0,0,0,0,0,0,0,0,54,55,
97,98,101,101,101,101,101,101,101,101,101,101,101,101,101,101,101,101,102,103,
113,114,117,117,117,117,117,117,117,117,117,117,117,117,117,117,117,117,118,119
</data>
 </layer>
 <layer id="4" name="Items" width="20" height="15">
  <data encoding="csv">
0,0,0,0,0,0,0,0,0,0,0,0,0,0,0,0,0,0,0,0,
0,0,0,0,0,0,0,0,0,0,194,0,0,0,0,0,0,0,0,0,
0,0,0,0,0,0,0,0,0,0,0,0,0,0,0,0,0,0,0,0,
0,0,0,0,0,0,0,0,0,0,0,0,0,0,0,0,0,0,0,0,
0,0,0,0,0,0,0,0,0,0,0,0,0,0,0,0,0,0,0,0,
0,0,0,0,0,0,0,0,0,0,0,0,0,0,0,0,0,0,0,0,
0,0,0,0,0,0,0,0,0,0,0,0,0,0,0,0,0,0,0,0,
0,0,0,0,0,0,0,0,0,0,0,0,0,0,0,0,0,0,0,0,
0,0,0,0,0,0,0,0,0,0,0,0,0,0,0,0,0,0,0,0,
0,0,0,0,0,0,0,0,0,0,0,0,0,0,0,0,0,0,0,0,
0,0,0,0,0,0,0,0,0,0,0,0,0,0,250,0,0,0,0,0,
0,0,0,0,0,228,0,0,0,0,0,0,0,0,0,0,0,0,0,0,
0,0,0,0,0,0,0,0,0,0,0,0,0,0,0,0,0,0,0,0,
0,0,0,0,0,0,0,0,0,0,0,0,0,0,0,0,0,0,0,0,
0,0,0,0,0,0,0,0,0,0,0,0,0,0,0,0,0,0,0,0
</data>
 </layer>
</map>
