<?xml version="1.0" encoding="UTF-8"?>
<map version="1.10" tiledversion="1.10.1" orientation="orthogonal" renderorder="right-down" width="40" height="20" tilewidth="16" tileheight="16" infinite="0" nextlayerid="2" nextobjectid="1">
 <editorsettings>
  <export target="../json/fase.json" format="json"/>
 </editorsettings>
 <tileset firstgid="1" name="tilemap" tilewidth="16" tileheight="16" tilecount="437" columns="23">
  <image source="../images/tilemap.png" width="368" height="304"/>
 </tileset>
 <layer id="1" name="Camada de Blocos 1" width="40" height="20">
  <data encoding="csv">
47,2,2,2,2,2,2,2,2,2,2,2,2,2,2,2,2,2,2,47,2,2,2,2,2,2,2,2,2,2,2,2,2,2,2,2,2,2,2,24,
26,25,25,25,25,25,25,25,25,25,25,25,25,25,25,25,25,25,25,24,25,25,25,25,25,25,25,25,25,25,25,25,25,25,25,25,25,25,25,24,
26,25,25,25,25,25,25,25,25,25,25,25,25,25,25,25,25,25,25,24,25,25,25,25,25,25,25,25,25,25,25,25,25,25,25,25,25,25,25,24,
26,25,25,25,25,25,25,25,25,25,25,25,25,25,25,25,25,25,25,24,25,25,25,25,25,25,25,25,25,25,25,25,25,25,25,25,235,25,25,24,
26,25,25,25,25,25,25,25,25,25,25,25,25,25,25,25,25,25,25,25,25,25,25,25,25,25,185,25,25,25,25,25,25,25,25,25,25,25,25,24,
26,25,25,25,25,25,25,25,25,25,25,25,25,25,25,25,25,25,25,25,25,25,25,25,25,25,185,25,25,25,25,25,25,25,25,25,25,25,25,24,
26,25,25,25,25,25,25,25,25,25,25,25,25,25,25,25,25,25,25,24,25,25,25,25,25,25,185,25,25,25,25,25,25,25,25,25,25,25,25,24,
26,25,25,25,25,25,25,25,25,25,25,25,25,25,25,25,25,25,25,24,25,25,25,25,25,25,185,25,25,25,25,25,25,25,25,25,25,25,25,24,
26,25,25,25,25,25,25,25,25,25,25,25,25,25,25,25,25,25,25,24,25,25,25,25,25,25,25,25,25,25,25,25,25,25,25,25,25,25,25,24,
47,48,48,48,48,48,48,48,48,25,25,48,48,48,48,48,48,48,48,47,25,25,25,25,25,25,25,25,25,25,25,25,25,25,25,25,25,25,25,24,
26,25,25,25,25,25,25,25,25,25,25,25,25,25,25,25,25,25,25,24,25,25,25,25,25,25,25,25,25,25,25,25,25,25,25,25,25,25,25,24,
26,25,25,25,25,25,25,25,25,25,25,25,25,25,25,25,25,25,25,24,25,25,25,25,25,25,25,25,25,25,25,25,25,25,25,25,25,25,25,24,
26,25,25,25,25,25,25,25,25,25,25,25,25,25,25,25,25,25,25,24,25,25,25,25,25,25,25,25,25,25,25,25,25,25,25,25,25,25,25,24,
26,25,25,25,25,25,25,25,25,25,25,25,25,25,25,25,25,25,25,47,2,2,2,2,2,25,25,2,2,2,2,47,25,25,25,25,25,25,25,24,
26,25,25,25,25,25,25,25,25,25,25,25,25,25,25,25,25,25,25,25,25,25,25,25,25,25,25,25,25,25,25,24,25,25,25,25,25,25,25,24,
26,25,25,25,25,25,25,25,25,25,25,25,25,25,25,25,25,25,25,25,25,25,25,25,25,25,25,25,25,25,25,24,25,25,25,25,25,25,25,24,
26,25,25,25,25,25,25,25,25,25,25,25,25,25,25,25,25,25,25,25,25,25,25,25,188,188,188,188,188,25,25,24,25,25,25,25,25,25,25,24,
26,25,25,25,25,25,25,25,25,25,25,25,25,25,25,25,25,25,25,25,25,25,25,25,25,25,25,25,25,25,25,24,25,25,25,25,25,25,25,24,
26,25,25,25,25,25,25,25,25,25,25,25,25,25,25,25,25,25,25,25,25,25,25,25,25,25,25,25,25,25,25,24,25,234,25,25,25,25,25,24,
48,48,48,48,48,48,48,48,48,48,48,48,48,48,48,48,48,48,48,48,48,48,48,48,48,48,48,48,48,48,48,48,48,48,48,48,48,48,48,48
</data>
 </layer>
</map>
